X:334
T:Just as the Tide Was Flowing
L:1/8
M:4/4
K:G
D2 | G2 G2 E3 D | G2 G2 A2 GA | BAGA BAGA | BAGF E2 D2 |
G2 G2 E3 D | G2 G2 A2 GA | BABd cBAG | E2 F2 G2 :||
Bc | d2 d2 d2 Bc | d2 d2 d2 e2 | d2 B2 BAGA | BAGF E2 D2 |
G2 G2 E3 D | G2 G2 A2 GA | BABd cBAG | E2 F2 G2 :||
